X:1
T:Title
%%score { ( 1 3 ) | 2 }
L:1/8
M:4/4
K:Bb
V:1 treble nm="Grand Piano"
V:3 treble 
V:2 bass 
V:1
 z4 z2[Q:1/4=100] [B,D][CE] | [DF]2 [EG][DF] [B,D]2 [B,D][DF] | [DB]2 [Fc][FB] [EG]2 [GB][EG] | %3
 [DF]2 [B,D][DF] [FB]2 [EA][DB] | [Fc]6 z2 | [Fd]2 [DB][EG] [DF]2 [F,B,D][B,DF] | %6
 [B,EG]2 [C=Ec][CGB] [CFA]2 [B,FB][Fc] | [Fd]2 [Fc][FB] G2 Bc |[M:3/4] [DB]6 |] %9
V:2
 z4 z2 [B,,F,][B,,F,] | [B,,B,]2 [B,,B,][B,,B,] [B,,F,]2 [B,,F,][B,,B,] | %2
 [B,,B,]2 [D,B,][D,B,] [E,B,]2 [E,B,][E,B,] | [B,,B,]2 [B,,F,][B,,B,] [D,B,]2 [C,F,][B,,F,] | %4
 [F,A,]6 [B,,B,][B,,B,] | [B,,B,]2 [B,,B,][B,,B,] [B,,B,]2 B,,B,, | E,2 C,C, F,E,D,[C,A,] | %7
 [B,,B,]2 [C,A,][D,B,] [E,B,E]2 [F,D][F,E] |[M:3/4] [B,,F,]6 |] %9
V:3
 x8 | x8 | x8 | x8 | z4 z E[DB][Ec] | x8 | x8 | x8 |[M:3/4] x6 |] %9

